icon/gr/form-trash.svg

<svg xmlns="http://www.w3.org/2000/svg" viewBox="0 0 24 24" height="1em" width="1em">
  <path fill="none" stroke="#000" stroke-width="2" d="M7.5,9 L16.5,9 L16.5,19 L7.5,19 L7.5,9 Z M5,9 L19,9 M9.36363636,6 L14.3636364,6 L14.3636364,9 L9.36363636,9 L9.36363636,6 Z M10.5455,11 L10.5455,17 M13.5455,11 L13.5455,17"/>
</svg>

<svg xmlns="http://www.w3.org/2000/svg" width="24" height="24"><path fill="none" stroke="#000" stroke-width="2" d="M7.5 9h9v10h-9V9ZM5 9h14M9.364 6h5v3h-5V6Zm1.181 5v6m3-6v6"/></svg>
